X:2178
T:Britches Full of Stitches, The
T:O! The Britches Full of Stitches
S:as played in Madison, Wisconsin
N:transcribed by Alan Ng
R:polka
Z: id:ng-other-4 transcribed by Alan Ng agng@students.wisc.edu Oct. 14, 1998
M:2/4
K:A
L:1/8
A>B cA|BA Bc|A>B cA|BA FB|A>B cA|BA Bc|A>B AF|FE E2:|*
|:e>f ec|BA Bc|e>f ec|BA A2|e>f ec|BA Bc|A>B AF|FE E2:|**
